X: 1
T: Night Before Larry Was Stretched, The
M: 9/8
L: 1/8
R: slip jig
K: Emin
|:GFE EB,E E2 G|FED DA,D FGA|GFE EB,E E2 G|FGA ABG FED:|
|:G2 B BcA B3|G2B Bcd ecA|G2 B BcA Bcd|e2 A ABG FED:|
